build/img/restart.svg

<svg width="88" height="88" viewBox="0 0 88 88" fill="none" xmlns="http://www.w3.org/2000/svg">
<path d="M43.9999 43.9997C54.9555 43.9997 63.8708 35.1288 63.8708 24.1288C63.8708 13.1288 54.9999 4.25781 43.9999 4.25781V43.9997ZM43.9999 43.9997C43.9999 33.0441 35.1289 24.1288 24.1289 24.1288C13.1733 24.1288 4.25793 33.0441 4.25793 43.9997H43.9999ZM43.9999 43.9997C33.0442 43.9997 24.1289 52.8707 24.1289 63.8707C24.1289 74.8707 33.0442 83.7417 43.9999 83.7417V43.9997ZM43.9999 43.9997C43.9999 54.9554 52.8708 63.8707 63.8708 63.8707C74.8708 63.8707 83.7418 54.9997 83.7418 43.9997H43.9999Z" stroke="black" stroke-width="2" stroke-miterlimit="10"/>
<path d="M69.9918 57.8833H56.3749V67.7301H69.9918V57.8833Z" fill="white"/>
<path d="M59.7902 76.7342L57.5725 83.8309H54.7337L61.9636 61.21H65.2459L72.4757 83.8309H69.5483L67.2862 76.7342H59.7902ZM66.7539 74.4721L64.6692 67.9519C64.1813 66.4882 63.8708 65.1132 63.5604 63.8269H63.516C63.2055 65.1132 62.895 66.5325 62.4515 67.9075L60.3668 74.4721H66.7539Z" fill="black"/>
</svg>

<svg width="88" height="88" viewBox="0 0 88 88" fill="none" xmlns="http://www.w3.org/2000/svg"><path d="M44 44c10.956 0 19.87-8.871 19.87-19.871 0-11-8.87-19.871-19.87-19.871V44zm0 0c0-10.956-8.871-19.871-19.871-19.871-10.956 0-19.871 8.915-19.871 19.87H44zm0 0c-10.956 0-19.871 8.87-19.871 19.87 0 11 8.915 19.872 19.87 19.872V44zm0 0c0 10.955 8.87 19.87 19.87 19.87 11 0 19.872-8.87 19.872-19.87H44z" stroke="#000" stroke-width="2" stroke-miterlimit="10"/><path d="M69.992 57.883H56.375v9.847h13.617v-9.847z" fill="#fff"/><path d="M59.79 76.734l-2.218 7.097h-2.838l7.23-22.621h3.282l7.23 22.62h-2.928l-2.262-7.096H59.79zm6.964-2.262l-2.085-6.52c-.488-1.464-.798-2.839-1.109-4.125h-.044c-.31 1.286-.621 2.706-1.064 4.08l-2.085 6.565h6.387z" fill="#000"/></svg>
